src/components/settings/automatic.svg

<?xml version="1.0" encoding="UTF-8" standalone="no"?>
<!-- Created with Inkscape (http://www.inkscape.org/) -->

<svg
   width="512"
   height="512"
   viewBox="0 0 135.46667 135.46667"
   version="1.1"
   id="svg5"
   xmlns="http://www.w3.org/2000/svg"
   xmlns:svg="http://www.w3.org/2000/svg">
  <defs
     id="defs2" />
  <path
     id="rect31"
     style="fill:#ffffff;fill-rule:evenodd;stroke-width:0.270034"
     d="M 0,0 H 35.651981 L 98.997913,135.46667 H 0 Z" />
  <g
     id="g9258"
     transform="scale(1.3546667)">
    <path
       id="rect9124"
       style="fill:#000000;fill-opacity:1;stroke-width:1.02102"
       d="M 26.317899,0 100,1.6113001e-4 V 100 H 73.079166 Z" />
    <path
       id="path8414"
       style="fill:#000000;fill-opacity:1;stroke:none;stroke-width:6.16351;stroke-miterlimit:4;stroke-dasharray:none;stroke-opacity:1"
       d="m 193.11523,144.56641 -34.99804,22.44531 c 10.08389,7.33985 21.82829,9.00791 34.01172,10.26367 7.18978,0.74107 14.41934,1.07327 21.64257,1.33594 14.26522,0.51876 29.32812,0.20183 43.61329,0.0527 15.57136,0.35497 31.22693,-1.38483 46.8164,-1.05273 -3.25045,3.48522 -6.48494,6.98583 -9.74414,10.46289 -15.12492,15.6183 -29.77948,31.66681 -44.13476,47.98047 -6.02642,-0.40024 -1.85447,-0.27042 -13.83789,-1.17383 -2.58852,-0.19518 -5.18835,-0.24341 -7.77344,-0.48047 -1.6191,-0.14848 -3.21994,-0.45047 -4.83008,-0.67578 l -19.96484,14.05078 c 1.96536,0.33946 10.63925,1.84879 11.64062,1.95899 5.00562,0.55079 16.76249,1.04428 21.43945,1.23046 0.16278,0.006 0.17798,0.006 0.33594,0.0117 -16.8042,19.50539 -33.25204,39.32311 -49.59765,59.20899 -18.79826,23.28456 -38.13747,46.11994 -57.26368,69.13086 -0.78252,0.88648 -1.97547,1.53785 -2.34765,2.66015 -1.26291,3.80902 5.043,5.43105 6.92383,5.33399 3.15103,-0.16236 5.87726,-2.30443 8.86328,-3.32422 15.60785,-5.33076 18.21625,-5.66738 35.77734,-10.38867 26.01389,-6.54307 52.7004,-9.93313 79.47461,-11.11719 8.21055,-0.36296 16.43574,-0.29475 24.6543,-0.27735 7.02667,0.0174 14.19211,1.77421 21.07812,0.375 11.52881,-2.34253 22.25782,-7.62908 33.38672,-11.44335 l 9.55078,-6.9043 c -0.2818,-4.08133 2.80503,-10.3979 -0.8457,-12.24414 -6.69102,-3.38377 -14.99814,0.14604 -22.49024,0.44336 -15.23572,0.60456 -40.26223,2.25669 -55.1914,4.05273 -16.84803,2.02688 -35.52579,5.61066 -52.29688,8.625 -15.63057,3.30783 -18.68635,3.69768 -32.68554,7.45117 -0.50584,0.13563 -1.03397,0.23339 -1.56836,0.32227 14.84937,-19.79257 29.05884,-40.07194 44.39062,-59.50195 12.83833,-16.03623 21.28401,-26.85644 33.83008,-41.50391 0.1536,0.006 0.16794,0.007 0.32617,0.0137 6.80136,-1.52634 13.90952,1.89737 20.72266,0.73438 4.93762,-0.84285 9.56614,-2.97312 14.34961,-4.45899 l 8.12109,-5.8789 c -0.55782,-1.56994 -0.12882,-4.08851 -1.67383,-4.71094 -6.61432,-2.66393 -14.8468,3.06203 -21.39062,-0.21094 -3.28704,-0.0738 -5.64988,-0.11926 -7.6211,-0.16016 21.46018,-24.01859 44.14765,-46.91143 67.91602,-68.65429 5.46156,-4.98788 9.88142,-9.28568 15.56836,-13.73633 1.10809,-0.86726 3.09471,-1.04775 3.46875,-2.4043 0.14904,-0.53708 -0.36526,-6.79592 -2.95313,-7.28711 -0.68018,-0.12917 -1.26127,0.56896 -1.89257,0.85352 -20.90927,5.33725 -42.74659,5.86247 -64.13868,7.57812 -7.17899,0.26251 -14.35376,0.69672 -21.53711,0.78711 -20.22212,0.25442 -39.71124,-0.78636 -59.58593,-4.60937 -3.91385,-0.75286 -7.82321,-1.58318 -11.64649,-2.70899 -2.04149,-0.6011 -3.92803,-1.63707 -5.89258,-2.45507 z"
       transform="scale(0.1953125)" />
    <path
       id="path1521"
       style="fill:#ffffff;fill-opacity:1;stroke-width:5.22762"
       d="m 357.80859,145.12109 c -0.68018,-0.12917 -1.26127,0.56896 -1.89257,0.85352 -20.90927,5.33725 -42.74659,5.86247 -64.13868,7.57812 -7.17899,0.26251 -14.35376,0.69672 -21.53711,0.78711 -20.22212,0.25442 -39.71124,-0.78636 -59.58593,-4.60937 -2.18796,-0.42087 -4.37013,-0.88325 -6.54102,-1.39063 l 14.20508,30.375 c 12.90154,0.3171 26.28141,0.0827 39.06641,-0.0508 15.57136,0.35497 31.22693,-1.38483 46.8164,-1.05273 -3.25045,3.48522 -6.48494,6.98583 -9.74414,10.46289 -15.12492,15.6183 -29.77948,31.66681 -44.13476,47.98047 -3.25048,-0.21588 -3.95434,-0.30622 -5.40625,-0.45899 l 10.62695,22.72461 c 1.77691,-2.11729 3.48975,-4.17817 5.43164,-6.44531 0.1536,0.006 0.16794,0.007 0.32617,0.0137 6.80136,-1.52634 13.90952,1.89737 20.72266,0.73438 4.93762,-0.84285 9.56614,-2.97312 14.34961,-4.45899 l 8.12109,-5.8789 c -0.55782,-1.56994 -0.12882,-4.08851 -1.67383,-4.71094 -6.61432,-2.66393 -14.8468,3.06203 -21.39062,-0.21094 -3.28704,-0.0738 -5.64988,-0.11925 -7.6211,-0.16016 21.46018,-24.01859 44.14765,-46.91143 67.91602,-68.65429 5.46156,-4.98788 9.88142,-9.28568 15.56836,-13.73633 1.10809,-0.86726 3.09471,-1.04775 3.46875,-2.4043 0.14904,-0.53708 -0.36526,-6.79592 -2.95313,-7.28711 z m -18.90234,185.43946 c -4.72576,0.23414 -9.72759,1.68331 -14.41016,1.86914 -9.07928,0.36027 -21.52724,1.11428 -33.35156,2.02734 l 13.18945,28.20508 c 0.18644,-0.0333 0.37451,-0.0462 0.56055,-0.084 11.52881,-2.34253 22.25782,-7.62908 33.38672,-11.44335 l 9.55078,-6.9043 c -0.2818,-4.08133 2.80503,-10.3979 -0.8457,-12.24414 -2.50913,-1.26892 -5.24462,-1.56627 -8.08008,-1.42578 z"
       transform="scale(0.1953125)" />
  </g>
</svg>

<?xml version="1.0" encoding="UTF-8" standalone="no"?>
<!-- Created with Inkscape (http://www.inkscape.org/) -->

<svg
   width="512"
   height="512"
   viewBox="0 0 135.46667 135.46667"
   version="1.1"
   id="svg5"
   xmlns="http://www.w3.org/2000/svg"
   xmlns:svg="http://www.w3.org/2000/svg">
  <defs
     id="defs2" />
  <rect
     style="fill:#ffffff;fill-opacity:1;stroke-width:0.603734;stroke-linecap:round;stroke-linejoin:round"
     id="rect1750"
     width="135.46667"
     height="135.46667"
     x="1.4210855e-14"
     y="0" />
  <g
     id="layer1">
    <g
       id="g9258"
       transform="scale(1.3546667)">
      <path
         id="rect9124"
         style="fill:#000000;stroke-width:1.02102;fill-opacity:1"
         d="M 26.317899,0 100,0.23498124 V 100 H 73.079166 Z" />
      <path
         id="path8414"
         style="fill:#000000;fill-opacity:1;stroke:none;stroke-width:6.16351;stroke-miterlimit:4;stroke-dasharray:none;stroke-opacity:1"
         d="M 193.11523 144.56641 L 158.11719 167.01172 C 168.20108 174.35157 179.94548 176.01963 192.12891 177.27539 C 199.31869 178.01646 206.54825 178.34866 213.77148 178.61133 C 228.0367 179.13009 243.0996 178.81316 257.38477 178.66406 C 272.95613 179.01903 288.6117 177.27923 304.20117 177.61133 C 300.95072 181.09655 297.71623 184.59716 294.45703 188.07422 C 279.33211 203.69252 264.67755 219.74103 250.32227 236.05469 C 244.29585 235.65445 248.4678 235.78427 236.48438 234.88086 C 233.89586 234.68568 231.29603 234.63745 228.71094 234.40039 C 227.09184 234.25191 225.491 233.94992 223.88086 233.72461 L 203.91602 247.77539 C 205.88138 248.11485 214.55527 249.62418 215.55664 249.73438 C 220.56226 250.28517 232.31913 250.77866 236.99609 250.96484 C 237.15887 250.97043 237.17407 250.97115 237.33203 250.97656 C 220.52783 270.48195 204.07999 290.29967 187.73438 310.18555 C 168.93612 333.47011 149.59691 356.30549 130.4707 379.31641 C 129.68818 380.20289 128.49523 380.85426 128.12305 381.97656 C 126.86014 385.78558 133.16605 387.40761 135.04688 387.31055 C 138.19791 387.14819 140.92414 385.00612 143.91016 383.98633 C 159.51801 378.65557 162.12641 378.31895 179.6875 373.59766 C 205.70139 367.05459 232.3879 363.66453 259.16211 362.48047 C 267.37266 362.11751 275.59785 362.18572 283.81641 362.20312 C 290.84308 362.22053 298.00852 363.97733 304.89453 362.57812 C 316.42334 360.23559 327.15235 354.94904 338.28125 351.13477 L 347.83203 344.23047 C 347.55023 340.14914 350.63706 333.83257 346.98633 331.98633 C 340.29531 328.60256 331.98819 332.13237 324.49609 332.42969 C 309.26037 333.03425 284.23386 334.68638 269.30469 336.48242 C 252.45666 338.5093 233.7789 342.09308 217.00781 345.10742 C 201.37724 348.41525 198.32146 348.8051 184.32227 352.55859 C 183.81643 352.69422 183.2883 352.79198 182.75391 352.88086 C 197.60328 333.08829 211.81275 312.80892 227.14453 293.37891 C 239.98286 277.34268 248.42854 266.52247 260.97461 251.875 C 261.12821 251.88145 261.14255 251.88204 261.30078 251.88867 C 268.10214 250.36233 275.2103 253.78604 282.02344 252.62305 C 286.96106 251.7802 291.58958 249.64993 296.37305 248.16406 L 304.49414 242.28516 C 303.93632 240.71522 304.36532 238.19665 302.82031 237.57422 C 296.20599 234.91029 287.97351 240.63625 281.42969 237.36328 C 278.14265 237.28944 275.77981 237.24402 273.80859 237.20312 C 295.26877 213.18453 317.95624 190.29169 341.72461 168.54883 C 347.18617 163.56095 351.60603 159.26315 357.29297 154.8125 C 358.40106 153.94524 360.38768 153.76475 360.76172 152.4082 C 360.91076 151.87112 360.39646 145.61228 357.80859 145.12109 C 357.12841 144.99192 356.54732 145.69005 355.91602 145.97461 C 335.00675 151.31186 313.16943 151.83708 291.77734 153.55273 C 284.59835 153.81524 277.42358 154.24945 270.24023 154.33984 C 250.01811 154.59426 230.52899 153.55348 210.6543 149.73047 C 206.74045 148.97761 202.83109 148.14729 199.00781 147.02148 C 196.96632 146.42038 195.07978 145.38441 193.11523 144.56641 z "
         transform="scale(0.1953125)" />
      <path
         id="path1521"
         style="fill:#ffffff;fill-opacity:1;stroke-width:5.22762"
         d="M 357.80859 145.12109 C 357.12841 144.99192 356.54732 145.69005 355.91602 145.97461 C 335.00675 151.31186 313.16943 151.83708 291.77734 153.55273 C 284.59835 153.81524 277.42358 154.24945 270.24023 154.33984 C 250.01811 154.59426 230.52899 153.55348 210.6543 149.73047 C 208.46634 149.3096 206.28417 148.84722 204.11328 148.33984 L 218.31836 178.71484 C 231.2199 179.03194 244.59977 178.7975 257.38477 178.66406 C 272.95613 179.01903 288.6117 177.27923 304.20117 177.61133 C 300.95072 181.09655 297.71623 184.59716 294.45703 188.07422 C 279.33211 203.69252 264.67755 219.74103 250.32227 236.05469 C 247.07179 235.83881 246.36793 235.74847 244.91602 235.5957 L 255.54297 258.32031 C 257.31988 256.20302 259.03272 254.14214 260.97461 251.875 C 261.12821 251.88145 261.14255 251.88204 261.30078 251.88867 C 268.10214 250.36233 275.2103 253.78604 282.02344 252.62305 C 286.96106 251.7802 291.58958 249.64993 296.37305 248.16406 L 304.49414 242.28516 C 303.93632 240.71522 304.36532 238.19665 302.82031 237.57422 C 296.20599 234.91029 287.97351 240.63625 281.42969 237.36328 C 278.14265 237.28944 275.77981 237.24403 273.80859 237.20312 C 295.26877 213.18453 317.95624 190.29169 341.72461 168.54883 C 347.18617 163.56095 351.60603 159.26315 357.29297 154.8125 C 358.40106 153.94524 360.38768 153.76475 360.76172 152.4082 C 360.91076 151.87112 360.39646 145.61228 357.80859 145.12109 z M 338.90625 330.56055 C 334.18049 330.79469 329.17866 332.24386 324.49609 332.42969 C 315.41681 332.78996 302.96885 333.54397 291.14453 334.45703 L 304.33398 362.66211 C 304.52042 362.62882 304.70849 362.61593 304.89453 362.57812 C 316.42334 360.23559 327.15235 354.94904 338.28125 351.13477 L 347.83203 344.23047 C 347.55023 340.14914 350.63706 333.83257 346.98633 331.98633 C 344.4772 330.71741 341.74171 330.42006 338.90625 330.56055 z "
         transform="scale(0.1953125)" />
    </g>
  </g>
</svg>
